X:1
T:Lobt den Herrn, 87.87
T:Evangelisches Choralbuch (Halle, German
T:Lobt den Herrn, 87.87
T:Public Domain
C:Evangelisches Choralbuch (Halle, German
Z:Public Domain
%%score ( 1 2 ) ( 3 4 )
L:1/8
M:4/4
K:Ab
V:1 treble 
V:2 treble 
V:3 bass 
V:4 bass 
V:1
 [EA]2 [Ec]2 [Ee]2 [FA]2 | [Gd]2 [Ac]2 [AB]2 [GB]2 | [EB]2 [Ec]2 [EB]2 E2 | [EG]2 [=DF]2 [B,E]4 | %4
 [EG]2 [EA]2 [DB]2 [Cc]2 | [Fd]2 [Ec]2 [EB]2 [EB]2 | [Ec]2 [Ee]2 [FA]2 [Dd]2 | [Ec]2 [EB]2 [CA]4 |] %8
V:2
 x8 | x8 | x6 E2 | x8 | x8 | x8 | x8 | x8 |] %8
V:3
 [A,,C]2 A,2 [G,B,]2 [F,C]2 | [B,,D]2 [C,E]2 [E,E]2 [E,E]2 | [G,B,]2 A,2 [E,G,]2 [C,G,]2 | %3
 [G,,B,]2 (B,A,) [E,G,]4 | [E,B,]2 [C,E,]2 [B,,G,]2 [A,,A,]2 | [D,A,]2 [A,,A,]2 [E,A,]2 [E,G,]2 | %6
 [A,,A,]2 [C,G,]2 [D,F,]2 [B,,F,]2 | [C,A,]2 [E,G,]2 [A,,A,]4 |] %8
V:4
 x2 A,2 x4 | x8 | x2 A,2 x4 | x2 B,,2 x4 | x8 | x8 | x8 | x8 |] %8

